source/img/logo_pognaly/logo-white_desktop.svg

<svg width="202" height="50" viewBox="0 0 202 50" fill="none" xmlns="http://www.w3.org/2000/svg">
<path d="M93.9956 12.6437L53.899 50L39.2637 2.10919L93.9956 12.6437Z" fill="#FF8D30"/>
<ellipse cx="94.727" cy="33.8971" rx="4.353" ry="4.25192" fill="#88BFEB"/>
<ellipse cx="111.867" cy="21.5315" rx="15.1738" ry="14.8214" fill="#EB9898"/>
<rect width="56.1361" height="28.0818" transform="matrix(0.940449 -0.339934 0.354279 0.93514 102.938 23.3034)" fill="#72A73E"/>
<ellipse cx="110.041" cy="40.6437" rx="2.55056" ry="2.49133" fill="#FFBD30"/>
<ellipse rx="22.7786" ry="9.03912" transform="matrix(0.97092 0.239406 -0.250219 0.968189 159.093 33.393)" fill="#8EC7F5"/>
<ellipse cx="176.368" cy="12.2097" rx="2.59389" ry="2.53366" fill="#FFBD30"/>
<ellipse cx="184.46" cy="9.19955" rx="2.59389" ry="2.53366" fill="#FFBD30"/>
<path d="M4.02588 42.0822H10.039V45.0343C10.039 45.5866 9.59133 46.0343 9.03905 46.0343H5.02588C4.47359 46.0343 4.02588 45.5866 4.02588 45.0343V42.0822Z" fill="#1D2959"/>
<path d="M41.209 42.0822H47.2222V45.0343C47.2222 45.5866 46.7744 46.0343 46.2222 46.0343H42.209C41.6567 46.0343 41.209 45.5866 41.209 45.0343V42.0822Z" fill="#1D2959"/>
<path fill-rule="evenodd" clip-rule="evenodd" d="M28.8202 3.49767C27.6472 3.04017 26.366 2.67304 25.4365 2.69114C24.5613 2.70819 23.3628 3.0787 22.2693 3.52448C21.6572 3.77405 21.0528 4.04925 20.4702 4.36048L20.4663 4.36256C19.777 4.73697 18.9092 4.49124 18.5283 3.8134C18.1473 3.13545 18.3973 2.28216 19.0867 1.9075C19.2875 1.79986 19.491 1.69708 19.6958 1.59699C20.0642 1.41695 20.581 1.17631 21.177 0.933328C22.32 0.467338 23.9373 0.0295369 25.38 0.00143768C26.9152 -0.0284637 28.6474 0.412716 29.8718 0.890271C30.6356 1.18821 31.3888 1.51746 32.1126 1.90084L32.1135 1.90132C32.8064 2.26972 33.0643 3.12072 32.6897 3.80208C32.3172 4.47963 31.4393 4.72838 30.7526 4.3665C30.5771 4.27486 30.3991 4.18782 30.2201 4.10286C29.8704 3.93684 29.3802 3.71611 28.8202 3.49767Z" fill="#8A4A38"/>
<path fill-rule="evenodd" clip-rule="evenodd" d="M19.2681 1.7262C18.6284 1.7262 18.1099 2.24475 18.1099 2.88443V3.59087C18.1099 4.12393 18.542 4.55606 19.0751 4.55606H19.1011V8.20738H20.1118V4.52995H19.8625C20.5138 4.40315 21.0054 3.82956 21.0054 3.14113C21.0054 2.35968 20.372 1.7262 19.5905 1.7262H19.2681Z" fill="#F6EF3E"/>
<path fill-rule="evenodd" clip-rule="evenodd" d="M31.9428 1.7262C32.5825 1.7262 33.1011 2.24475 33.1011 2.88443V3.59087C33.1011 4.12393 32.6689 4.55606 32.1359 4.55606H32.1098V8.20738H31.0991V4.52995H31.3485C30.6971 4.40315 30.2055 3.82956 30.2055 3.14113C30.2055 2.35968 30.839 1.7262 31.6204 1.7262H31.9428Z" fill="#F6EF3E"/>
<path d="M0 16.7622C0 11.7917 4.02944 7.76221 9 7.76221H42.2528C47.2234 7.76221 51.2529 11.7916 51.2529 16.7622V42.0822H0V16.7622Z" fill="#8A4A38"/>
<ellipse cx="8.05329" cy="33.2472" rx="5.02106" ry="4.906" fill="#EF9A9A"/>
<ellipse rx="4.80899" ry="9.25664" transform="matrix(0.705106 -0.709101 0.725463 0.688261 39.4773 33.4161)" fill="#93C6EB"/>
<rect width="16.3937" height="9.13786" transform="matrix(0.693232 -0.720714 0.73677 0.676144 19.7539 21.3156)" fill="#C2DEA3"/>
<rect width="8.33473" height="6.24579" rx="1" transform="matrix(0.737932 0.674875 -0.691988 0.721909 10.5845 13.2611)" fill="#C49A6C"/>
<rect x="10.0396" y="23.0502" width="7.06842" height="19.9995" fill="#F57B20"/>
<path d="M10.0396 6.4693H17.108V23.7643C17.108 25.7061 15.5155 27.2802 13.5738 27.2802C11.632 27.2802 10.0396 25.7061 10.0396 23.7643V6.4693Z" fill="#F6A725"/>
<rect x="9.05957" y="21.4786" width="9.03459" height="1.96354" fill="#F6EF3E"/>
<rect x="34.1519" y="23.0502" width="7.06842" height="19.9995" fill="#F57B20"/>
<path d="M34.1519 6.4693H41.2203V23.7643C41.2203 25.7061 39.6278 27.2802 37.6861 27.2802C35.7443 27.2802 34.1519 25.7061 34.1519 23.7643V6.4693Z" fill="#F6A725"/>
<rect x="33.1719" y="21.4786" width="9.03459" height="1.96354" fill="#F6EF3E"/>
<g filter="url(#filter0_d_13528_1330)">
<path d="M198.541 22.6871C199.513 22.0829 200 21.1514 200 19.8927C200 18.248 199.299 16.9557 197.899 16.0159C196.538 15.0592 194.933 14.5809 193.085 14.5809C191.276 14.5809 189.623 15.1012 188.126 16.1417C186.647 17.1655 185.908 18.5333 185.908 20.2452C185.908 20.8829 186.113 21.4116 186.521 21.8311C186.929 22.2339 187.513 22.4353 188.272 22.4353C189.011 22.4353 189.575 22.2339 189.964 21.8311C190.372 21.4116 190.576 20.8829 190.576 20.2452C190.537 19.7584 190.703 19.2634 191.072 18.7599C191.442 18.2396 192.113 17.9795 193.085 17.9795C193.902 17.9962 194.486 18.1976 194.836 18.5836C195.205 18.9697 195.371 19.3557 195.332 19.7417C195.332 20.0102 195.235 20.2787 195.04 20.5472C194.846 20.8158 194.641 21.0256 194.427 21.1766C194.233 21.3276 193.912 21.5458 193.465 21.8311C193.017 22.1164 192.706 22.3178 192.531 22.4353C191.52 23.157 191.014 24.1136 191.014 25.3052C191.014 25.8926 191.228 26.3877 191.656 26.7905C192.103 27.1765 192.696 27.3695 193.435 27.3695C194.174 27.3695 194.758 27.1765 195.186 26.7905C195.633 26.3877 195.857 25.8926 195.857 25.3052C195.857 25.0534 195.906 24.8185 196.003 24.6003C196.1 24.3821 196.256 24.1807 196.47 23.9961C196.703 23.8115 196.897 23.6605 197.053 23.543C197.228 23.4255 197.481 23.2745 197.812 23.0898C198.162 22.9052 198.405 22.771 198.541 22.6871Z" fill="#192144"/>
<path d="M173.612 27.9874L178.779 21.7371C179.309 20.9826 180.028 20.5625 180.937 20.4768C181.845 20.3739 182.64 20.5883 183.321 21.1198C184.003 21.6514 184.324 22.363 184.287 23.2547V32.2057C184.287 32.7716 184.059 33.2517 183.605 33.6461C183.17 34.0234 182.64 34.212 182.015 34.212C181.391 34.212 180.851 34.0234 180.397 33.6461C179.962 33.2517 179.744 32.7716 179.744 32.2057V26.6499L174.577 32.9002C174.047 33.6547 173.328 34.0748 172.419 34.1606C171.511 34.2635 170.716 34.0491 170.034 33.5175C169.353 32.986 169.031 32.2743 169.069 31.3827V22.4573C169.069 21.8915 169.287 21.4113 169.722 21.0169C170.176 20.6225 170.716 20.4254 171.34 20.4254C171.965 20.4254 172.495 20.6225 172.93 21.0169C173.385 21.4113 173.612 21.8915 173.612 22.4573V27.9874Z" fill="#192144"/>
<path fill-rule="evenodd" clip-rule="evenodd" d="M150.381 32.1179V22.4071C150.381 21.8487 150.142 21.3689 149.665 20.9675C149.206 20.5487 148.662 20.3393 148.031 20.3393C147.42 20.3393 146.885 20.5487 146.426 20.9675C145.968 21.3689 145.739 21.8487 145.739 22.4071V22.1716C145.509 21.6481 145.051 21.2031 144.363 20.8366C143.675 20.4527 142.892 20.2608 142.013 20.2608C140.294 20.2608 138.708 20.8803 137.256 22.1192C135.842 23.3581 135.136 25.0595 135.136 27.2233C135.136 29.4394 135.833 31.1582 137.227 32.3797C138.622 33.6012 140.217 34.2119 142.013 34.2119C142.892 34.2119 143.666 34.0549 144.334 33.7408C145.003 33.4092 145.49 33.0166 145.796 32.5629C145.91 33.0341 146.178 33.4267 146.598 33.7408C147.019 34.0374 147.496 34.1858 148.031 34.1858C148.662 34.1858 149.206 33.9851 149.665 33.5837C150.142 33.1824 150.381 32.6938 150.381 32.1179ZM143.052 30.3335C144.618 30.3335 145.888 28.9901 145.888 27.3328C145.888 25.6755 144.618 24.3321 143.052 24.3321C141.486 24.3321 140.216 25.6755 140.216 27.3328C140.216 28.9901 141.486 30.3335 143.052 30.3335Z" fill="#192144"/>
<path d="M129.097 25.3703V22.5636C129.097 21.9933 129.333 21.5095 129.806 21.112C130.279 20.6973 130.831 20.4899 131.462 20.4899C132.092 20.4899 132.644 20.6973 133.117 21.112C133.59 21.5095 133.827 21.9933 133.827 22.5636V32.1803C133.827 32.7506 133.59 33.2345 133.117 33.6319C132.664 34.0294 132.112 34.2281 131.462 34.2281C130.811 34.2281 130.25 34.0294 129.777 33.6319C129.323 33.2345 129.097 32.7506 129.097 32.1803V29.3322H123.982V32.1803C123.982 32.7506 123.745 33.2345 123.272 33.6319C122.819 34.0294 122.267 34.2281 121.617 34.2281C120.966 34.2281 120.405 34.0294 119.932 33.6319C119.478 33.2345 119.252 32.7506 119.252 32.1803V22.5636C119.252 21.9933 119.488 21.5095 119.961 21.112C120.434 20.6973 120.986 20.4899 121.617 20.4899C122.247 20.4899 122.799 20.6973 123.272 21.112C123.745 21.5095 123.982 21.9933 123.982 22.5636V25.3703H129.097Z" fill="#192144"/>
<path d="M116.878 20.4899C117.342 20.4899 117.739 20.6617 118.07 21.0054C118.401 21.349 118.566 22.1411 118.566 22.6222C118.566 23.1033 118.401 23.6007 118.07 23.9444C117.739 24.288 117.342 24.4089 116.878 24.4089H112.914V32.2298C112.914 33.7099 111.583 34.2282 110.248 34.2282C109.01 34.2282 107.827 33.5724 107.827 32.2438L107.868 20.4899C107.868 20.4899 114.775 20.4899 116.878 20.4899Z" fill="#192144"/>
<path d="M88.598 14.5809V32.0428C88.598 32.6187 88.2781 33.1072 87.8347 33.5085C87.4098 33.9099 86.742 34.1105 86.1323 34.1105C85.5227 34.1105 84.6414 33.9099 84.198 33.5085C83.7731 33.1072 83.5606 32.6186 83.5606 32.0427V18.5223H76.4283V32.0427C76.4283 32.6186 76.2066 33.1072 75.7632 33.5085C75.3383 33.9099 74.4732 34.1105 73.8635 34.1105C73.2539 34.1105 72.4548 33.9099 72.0114 33.5085C71.5865 33.1072 71.374 32.6186 71.374 32.0427V14.5809C77.0826 14.5809 88.598 14.5809 88.598 14.5809Z" fill="#192144"/>
<path d="M104.385 32.0866C102.942 33.4105 101.012 34.0725 98.5936 34.0725C96.1755 34.0725 94.2558 33.4105 92.8346 32.0866C91.3709 30.743 90.6391 29.0634 90.6391 27.0479C90.6391 25.0127 91.3709 23.3331 92.8346 22.0092C94.2558 20.6853 96.1755 20.0234 98.5936 20.0234C101.012 20.0234 102.942 20.6853 104.385 22.0092C105.827 23.3529 106.548 25.0325 106.548 27.0479C106.548 29.0634 105.827 30.743 104.385 32.0866ZM100.63 24.9732C100.227 24.5582 99.7285 24.3112 99.1346 24.2322C98.5618 24.1334 98.0103 24.1828 97.48 24.3804C96.9709 24.578 96.5361 24.9139 96.1755 25.3881C95.8361 25.8624 95.6876 26.4156 95.73 27.0479C95.73 27.8778 95.9952 28.5694 96.5255 29.1227C97.077 29.6562 97.7664 29.923 98.5936 29.923C99.4421 29.923 100.132 29.6661 100.662 29.1523C101.192 28.6188 101.457 27.9174 101.457 27.0479C101.457 26.218 101.182 25.5264 100.63 24.9732Z" fill="#192144"/>
<path d="M157.154 20.4254C159.866 20.4254 167.092 20.4647 167.092 20.4647C167.092 20.4647 167.097 29.0977 167.097 32.1146C167.097 32.6941 166.853 33.1936 166.366 33.6132C165.9 34.0129 165.479 34.2127 164.769 34.2127C164.06 34.2127 163.698 34.2652 163.211 33.8656C162.745 33.446 162.317 32.6941 162.317 32.1146V24.3218H159.025C159.025 29.908 159.026 31.1353 156.921 33.1337C156.145 33.853 155.147 34.2127 153.928 34.2127C153.196 34.2127 152.767 34.0413 152.301 33.6416C151.835 33.222 151.474 32.5524 151.474 31.9329C151.474 30.5995 151.76 30.0689 152.492 29.199C154.591 29.199 154.5 28.7019 154.368 24.9212V22.5234C154.391 21.944 154.5 20.4254 154.5 20.4254C154.5 20.4254 156.511 20.4254 157.154 20.4254Z" fill="#192144"/>
<path d="M196.194 31.2747C196.194 32.8968 194.788 34.2119 193.053 34.2119C191.318 34.2119 189.912 32.8968 189.912 31.2747C189.912 29.6525 191.318 28.3375 193.053 28.3375C194.788 28.3375 196.194 29.6525 196.194 31.2747Z" fill="#192144"/>
</g>
<defs>
<filter id="filter0_d_13528_1330" x="69.374" y="13.5809" width="132.625" height="23.6473" filterUnits="userSpaceOnUse" color-interpolation-filters="sRGB">
<feFlood flood-opacity="0" result="BackgroundImageFix"/>
<feColorMatrix in="SourceAlpha" type="matrix" values="0 0 0 0 0 0 0 0 0 0 0 0 0 0 0 0 0 0 127 0" result="hardAlpha"/>
<feOffset dy="1"/>
<feGaussianBlur stdDeviation="1"/>
<feColorMatrix type="matrix" values="0 0 0 0 0 0 0 0 0 0 0 0 0 0 0 0 0 0 0.3 0"/>
<feBlend mode="normal" in2="BackgroundImageFix" result="effect1_dropShadow_13528_1330"/>
<feBlend mode="normal" in="SourceGraphic" in2="effect1_dropShadow_13528_1330" result="shape"/>
</filter>
</defs>
</svg>

<svg width="202" height="50" fill="none" xmlns="http://www.w3.org/2000/svg"><path d="M94 12.64 53.9 50 39.26 2.1 94 12.65Z" fill="#FF8D30"/><ellipse cx="94.73" cy="33.9" rx="4.35" ry="4.25" fill="#88BFEB"/><ellipse cx="111.87" cy="21.53" rx="15.17" ry="14.82" fill="#EB9898"/><path fill="#72A73E" d="m102.94 23.3 52.8-19.08 9.94 26.26-52.8 19.08z"/><ellipse cx="110.04" cy="40.64" rx="2.55" ry="2.49" fill="#FFBD30"/><ellipse rx="22.78" ry="9.04" transform="matrix(.97092 .2394 -.25022 .96819 159.1 33.4)" fill="#8EC7F5"/><ellipse cx="176.37" cy="12.21" rx="2.59" ry="2.53" fill="#FFBD30"/><ellipse cx="184.46" cy="9.2" rx="2.59" ry="2.53" fill="#FFBD30"/><path d="M4.03 42.08h6v2.95a1 1 0 0 1-1 1h-4a1 1 0 0 1-1-1v-2.95ZM41.2 42.08h6.02v2.95a1 1 0 0 1-1 1h-4.01a1 1 0 0 1-1-1v-2.95Z" fill="#1D2959"/><path fill-rule="evenodd" clip-rule="evenodd" d="M28.82 3.5a9.95 9.95 0 0 0-3.38-.8c-.88 0-2.08.38-3.17.82-.61.25-1.22.53-1.8.84-.7.38-1.56.13-1.94-.55a1.39 1.39 0 0 1 .56-1.9 18.24 18.24 0 0 1 2.09-.98c1.14-.46 2.76-.9 4.2-.93 1.54-.03 3.27.41 4.5.89.76.3 1.5.63 2.23 1.01.7.37.95 1.22.58 1.9-.37.68-1.25.93-1.94.57a15.61 15.61 0 0 0-1.93-.87Z" fill="#8A4A38"/><path fill-rule="evenodd" clip-rule="evenodd" d="M19.27 1.73c-.64 0-1.16.52-1.16 1.15v.71c0 .53.43.97.97.97h.02V8.2h1.01V4.53h-.25a1.42 1.42 0 0 0-.27-2.8h-.32ZM31.94 1.73c.64 0 1.16.52 1.16 1.15v.71c0 .53-.43.97-.96.97h-.03V8.2H31.1V4.53h.25a1.42 1.42 0 0 1 .27-2.8h.32Z" fill="#F6EF3E"/><path d="M0 16.76a9 9 0 0 1 9-9h33.25a9 9 0 0 1 9 9v25.32H0V16.76Z" fill="#8A4A38"/><ellipse cx="8.05" cy="33.25" rx="5.02" ry="4.91" fill="#EF9A9A"/><ellipse rx="4.81" ry="9.26" transform="matrix(.7051 -.7091 .72546 .68826 39.48 33.42)" fill="#93C6EB"/><path fill="#C2DEA3" d="M19.75 21.32 31.12 9.5l6.73 6.18L26.49 27.5z"/><rect width="8.33" height="6.25" rx="1" transform="matrix(.73793 .67488 -.69199 .72191 10.58 13.26)" fill="#C49A6C"/><path fill="#F57B20" d="M10.04 23.05h7.07v20h-7.07z"/><path d="M10.04 6.47h7.07v17.3a3.53 3.53 0 0 1-7.07 0V6.46Z" fill="#F6A725"/><path fill="#F6EF3E" d="M9.06 21.48h9.03v1.96H9.06z"/><path fill="#F57B20" d="M34.15 23.05h7.07v20h-7.07z"/><path d="M34.15 6.47h7.07v17.3a3.53 3.53 0 0 1-7.07 0V6.46Z" fill="#F6A725"/><path fill="#F6EF3E" d="M33.17 21.48h9.03v1.96h-9.03z"/><g filter="url(#a)" fill="#192144"><path d="M198.54 22.69a3.06 3.06 0 0 0 1.46-2.8c0-1.64-.7-2.93-2.1-3.87a8.16 8.16 0 0 0-4.81-1.44 8.5 8.5 0 0 0-4.96 1.56 4.76 4.76 0 0 0-2.22 4.1c0 .64.2 1.17.61 1.6.4.4 1 .6 1.75.6.74 0 1.3-.2 1.7-.6.4-.43.6-.96.6-1.6a2.2 2.2 0 0 1 .5-1.48c.37-.52 1.04-.78 2.02-.78.81.02 1.4.22 1.75.6.37.39.53.78.5 1.16 0 .27-.1.54-.3.8-.2.28-.4.49-.61.64-.2.15-.52.37-.97.65l-.93.6a3.36 3.36 0 0 0-1.52 2.88c0 .58.22 1.08.65 1.48.44.39 1.04.58 1.78.58.73 0 1.32-.2 1.75-.58.44-.4.67-.9.67-1.48 0-.26.05-.5.14-.7.1-.23.26-.43.47-.61l.58-.46c.18-.11.43-.27.76-.45.35-.18.6-.32.73-.4ZM173.61 27.99l5.17-6.25a2.85 2.85 0 0 1 2.16-1.26c.9-.1 1.7.1 2.38.64.68.53 1 1.24.97 2.13v8.96c0 .56-.23 1.04-.69 1.44-.43.37-.96.56-1.59.56-.62 0-1.16-.19-1.61-.56-.44-.4-.66-.88-.66-1.44v-5.56l-5.16 6.25a2.85 2.85 0 0 1-2.16 1.26c-.9.1-1.7-.11-2.39-.64-.68-.53-1-1.25-.96-2.14v-8.92c0-.57.22-1.05.65-1.44.46-.4 1-.6 1.62-.6.63 0 1.16.2 1.59.6.45.4.68.87.68 1.44v5.53Z"/><path fill-rule="evenodd" clip-rule="evenodd" d="M150.38 32.12V22.4c0-.56-.24-1.04-.72-1.44-.45-.42-1-.63-1.63-.63-.61 0-1.15.2-1.6.63-.46.4-.7.88-.7 1.44v-.24a2.9 2.9 0 0 0-1.37-1.33 4.74 4.74 0 0 0-2.35-.58c-1.72 0-3.3.62-4.75 1.86a6.43 6.43 0 0 0-2.12 5.1c0 2.22.7 3.94 2.09 5.16a7.06 7.06 0 0 0 4.78 1.83 5.4 5.4 0 0 0 2.32-.47 3.68 3.68 0 0 0 1.47-1.18c.11.47.38.87.8 1.18.42.3.9.45 1.43.45.63 0 1.18-.2 1.63-.6.48-.4.72-.9.72-1.47Zm-7.33-1.79a2.92 2.92 0 0 0 2.84-3c0-1.65-1.27-3-2.84-3a2.92 2.92 0 0 0-2.83 3c0 1.66 1.27 3 2.83 3Z"/><path d="M129.1 25.37v-2.8c0-.58.23-1.06.7-1.46a2.43 2.43 0 0 1 1.66-.62c.63 0 1.18.2 1.66.62.47.4.7.88.7 1.45v9.62c0 .57-.23 1.05-.7 1.45-.46.4-1 .6-1.66.6-.65 0-1.21-.2-1.68-.6-.46-.4-.68-.88-.68-1.45v-2.85h-5.12v2.85c0 .57-.23 1.05-.7 1.45-.46.4-1.01.6-1.66.6-.65 0-1.22-.2-1.69-.6-.45-.4-.68-.88-.68-1.45v-9.62c0-.57.24-1.05.71-1.45a2.43 2.43 0 0 1 1.66-.62c.63 0 1.18.2 1.65.62.48.4.71.88.71 1.45v2.81h5.12ZM116.88 20.49c.46 0 .86.17 1.19.52.33.34.5 1.13.5 1.61 0 .48-.17.98-.5 1.32-.33.35-.73.47-1.2.47h-3.96v7.82c0 1.48-1.33 2-2.66 2-1.24 0-2.42-.66-2.42-1.99l.04-11.75h9ZM88.6 14.58v17.46c0 .58-.32 1.07-.77 1.47-.42.4-1.09.6-1.7.6-.6 0-1.49-.2-1.93-.6-.43-.4-.64-.9-.64-1.47V18.52h-7.13v13.52a1.9 1.9 0 0 1-.67 1.47c-.42.4-1.29.6-1.9.6a3 3 0 0 1-1.85-.6c-.42-.4-.64-.9-.64-1.47V14.58H88.6ZM104.39 32.09c-1.45 1.32-3.38 1.98-5.8 1.98-2.41 0-4.33-.66-5.76-1.98a6.56 6.56 0 0 1-2.2-5.04 6.5 6.5 0 0 1 2.2-5.04c1.43-1.32 3.35-1.99 5.76-1.99 2.42 0 4.35.67 5.8 1.99a6.6 6.6 0 0 1 2.16 5.04 6.6 6.6 0 0 1-2.16 5.04Zm-3.76-7.12c-.4-.41-.9-.66-1.5-.74a2.98 2.98 0 0 0-2.96 1.16 2.48 2.48 0 0 0-.44 1.66c0 .83.27 1.52.8 2.07.55.54 1.24.8 2.06.8.85 0 1.54-.25 2.07-.77.53-.53.8-1.23.8-2.1 0-.83-.28-1.52-.83-2.08ZM157.15 20.43l9.94.03v11.65c0 .58-.24 1.08-.72 1.5-.47.4-.9.6-1.6.6-.71 0-1.07.06-1.56-.34a2.73 2.73 0 0 1-.9-1.76v-7.79h-3.28c0 5.59 0 6.82-2.1 8.81a4.23 4.23 0 0 1-3 1.08c-.73 0-1.16-.17-1.63-.57a2.47 2.47 0 0 1-.83-1.7 3.5 3.5 0 0 1 1.02-2.74c2.1 0 2.01-.5 1.88-4.28v-2.4c.02-.58.13-2.1.13-2.1h2.65ZM196.2 31.27c0 1.63-1.41 2.94-3.15 2.94-1.73 0-3.14-1.31-3.14-2.94 0-1.62 1.4-2.93 3.14-2.93 1.74 0 3.14 1.31 3.14 2.93Z"/></g><defs><filter id="a" x="69.37" y="13.58" width="132.63" height="23.65" filterUnits="userSpaceOnUse" color-interpolation-filters="sRGB"><feFlood flood-opacity="0" result="BackgroundImageFix"/><feColorMatrix in="SourceAlpha" values="0 0 0 0 0 0 0 0 0 0 0 0 0 0 0 0 0 0 127 0" result="hardAlpha"/><feOffset dy="1"/><feGaussianBlur stdDeviation="1"/><feColorMatrix values="0 0 0 0 0 0 0 0 0 0 0 0 0 0 0 0 0 0 0.3 0"/><feBlend in2="BackgroundImageFix" result="effect1_dropShadow_13528_1369"/><feBlend in="SourceGraphic" in2="effect1_dropShadow_13528_1369" result="shape"/></filter></defs></svg>
